!!!COM: Palestrina, Giovanni Perluigi da
!!!OPR: Missa De beata virgine (1570)
!!!OMD: Credo
!!!OTL: Et in Spiritum
**kern	**kern	**kern	**kern	**kern	**kern
*Ibass	*Itenor	*Itenor	*Icalto	*Icant	*Icant
!Bassus	!Tenor 2	!Tenor 1	!Altus	!Cantus 2	!Cantus 1
*clefF4	*clefGv2	*clefGv2	*clefG2	*clefG2	*clefG2
*k[b-]	*k[b-]	*k[b-]	*k[b-]	*k[b-]	*k[b-]
*?:X	*?:X	*?:X	*?:X	*?:X	*?:X
*M4/2	*M4/2	*M4/2	*M4/2	*M4/2	*M4/2
=154	=154	=154	=154	=154	=154
0E	0e	1.B	0g#	0b	0ee
.	.	[2e	.	.	.
=155	=155	=155	=155	=155	=155
1A	1e	2e]	1a	1cc#	1ee
.	.	2.A	.	.	.
2.D	2.d	.	2.a	2.dd	2.ff#
.	.	4A	.	.	.
.	.	[2d	.	.	.
4D	4d	.	4a	4dd	4ff#
=156	=156	=156	=156	=156	=156
2G	2B	4d]	1b	2dd	2gg
.	.	4c	.	.	.
1G	1d	4B	.	1dd	4g
.	.	4A	.	.	4a
.	.	1G	2r	.	4b
.	.	.	.	.	4g
2C	2c	.	2g	2ee	[2cc
=157	=157	=157	=157	=157	=157
1G	2d	2G	2g	1dd	2cc]
.	2G	2B	2g	.	2b
1A	2.c	4A	2e	1cc	[1ee
.	.	4B	.	.	.
.	.	4c	[2a	.	.
.	4d	4A	.	.	.
=158	=158	=158	=158	=158	=158
1E	1e	2B	4a]	1b	2ee]
.	.	.	8g	.	.
.	.	.	8f#	.	.
.	.	2B	2g#	.	2ee
1A	2r	1c	[1a	1a	[1ee
.	2e	.	.	.	.
=159	=159	=159	=159	=159	=159
2r	2A	1e	1a]	2r	1ee]
2A	4c	.	.	1a	.
.	4c	.	.	.	.
2D	1d	1f	2r	.	1r
[2d	.	.	2d	2a	.
=160	=160	=160	=160	=160	=160
2d]	1A	1e	2e	2a	1ee
2c#	.	.	1a	2a	.
1d	2r	1d	.	4f	1ff
.	.	.	.	4g	.
.	2d	.	2a	4a	.
.	.	.	.	4b	.
=161	=161	=161	=161	=161	=161
1A	2e	1c	1a	4cc	1ee
.	.	.	.	4dd	.
.	1A	.	.	4ee	.
.	.	.	.	4cc	.
1D	.	1d	2.f	1ff	1dd
.	2d	.	.	.	.
.	.	.	4g	.	.
=162	=162	=162	=162	=162	=162
0r	2e	2.A	1a	2.ee	2cc
.	4c	.	.	.	1ee
.	4d	4B	.	4dd	.
.	4e	2c	1g	2cc	.
.	4f	.	.	.	.
.	4g	2G	.	2b	[2dd
.	4f	.	.	.	.
=163	=163	=163	=163	=163	=163
0r	4e	1A	2r	0a	2dd]
.	4d	.	.	.	.
.	2e	.	2e	.	2cc#
.	1d	1r	1f#	.	1dd
=164	=164	=164	=164	=164	=164
2.E	1G	2r	1.g	0b	0r
.	.	2.B	.	.	.
4F	.	.	.	.	.
[1G	2.B	.	.	.	.
.	.	4c	.	.	.
.	.	2d	2g	.	.
.	4c	.	.	.	.
=165	=165	=165	=165	=165	=165
2G]	2d	2B	1g	0r	0r
2C	2c	2e	.	.	.
2G	2B	2d	2g	.	.
2C	2e	2c	2g	.	.
=166	=166	=166	=166	=166	=166
2D	2d	2.A	2f	0r	0r
1F	1c	.	1a	.	.
.	.	4B	.	.	.
.	.	2c	.	.	.
2E	2G	2c	[2g	.	.
=167	=167	=167	=167	=167	=167
1D	1A	1d	2g]	0r	1r
.	.	.	2f#	.	.
[1G	1G	1d	1g	.	2.b
.	.	.	.	.	4cc
=168	=168	=168	=168	=168	=168
0G]	0r	0r	2r	2.b	1dd
.	.	.	2.g	.	.
.	.	.	.	4cc	.
.	.	.	.	1dd	[1b
.	.	.	4g	.	.
.	.	.	2g	.	.
=169	=169	=169	=169	=169	=169
0r	0r	0r	2g	2dd	2b]
.	.	.	2c	2ee	2cc
.	.	.	2g	2dd	2b
.	.	.	2a	2cc	2a
=170	=170	=170	=170	=170	=170
0r	2r	0r	1e	1b	1g#
.	2e	.	.	.	.
.	2A	.	1r	2cc	1a
.	[2a	.	.	2cc	.
=171	=171	=171	=171	=171	=171
0r	2a]	0r	1e	1b	2e
.	2g#	.	.	.	2.ee
.	2.a	.	2A	[1cc	.
.	.	.	.	.	4dd
.	.	.	[2a	.	4cc
.	4g	.	.	.	4b
=172	=172	=172	=172	=172	=172
0r	2f	0r	2a]	1cc]	2a
.	2e	.	2g	.	1cc
.	1d	.	1f	1dd	.
.	.	.	.	.	2b
=173	=173	=173	=173	=173	=173
2r	1c	1e	2g	1ee	1cc
2A	.	.	2e	.	.
2D	1d	1f	[1a	1r	1r
[2d	.	.	.	.	.
=174	=174	=174	=174	=174	=174
2d]	2A	1.e	2a]	0r	1r
1c	1a	.	2A	.	.
.	.	.	2c	.	2r
2B	[2g	2d	2d	.	2g
=175	=175	=175	=175	=175	=175
1A	2g]	1c	2e	0r	2a
.	2f#	.	2c	.	2cc
1G	[1g	2d	1r	.	2b
.	.	[2e	.	.	2b
=176	=176	=176	=176	=176	=176
0A	2g]	2e]	0r	0r	1a
.	2f	1d	.	.	.
.	2.e	.	.	.	1a
.	.	2c	.	.	.
.	4f#	.	.	.	.
=177	=177	=177	=177	=177	=177
1G	1g	1d	2r	2.b	2r
.	.	.	1g	.	1b
.	.	.	.	4cc	.
1r	1d	1r	.	2dd	.
.	.	.	2f#	2dd	2a
=178	=178	=178	=178	=178	=178
1.G	2r	2.B	2g	0dd	2.b
.	1B	.	4G	.	.
.	.	4c	4A	.	4a
.	.	2d	4B	.	2g
.	.	.	4G	.	.
2F#	2A	2d	[2d	.	2a
=179	=179	=179	=179	=179	=179
2G	2B	1d	4d]	0dd	2g
.	.	.	4G	.	.
2G	2G	.	2g	.	2b
1D	[1A	1d	2f	.	1a
.	.	.	[2f	.	.
=180	=180	=180	=180	=180	=180
2F	2A]	1A	2f]	1cc	1a
2F	1c	.	2f	.	.
1C	.	1c	2.e	1ee	1g
.	2G	.	.	.	.
.	.	.	4f	.	.
=181	=181	=181	=181	=181	=181
0G	2.B	1d	1g	0dd	1r
.	4c	.	.	.	.
.	2d	1r	1g	.	1b
.	2G	.	.	.	.
=182	=182	=182	=182	=182	=182
0r	1A	2r	1e	2r	1cc#
.	.	2A	.	2a	.
.	1r	2d	1f	2a	2dd
.	.	2d	.	2a	2dd
=183	=183	=183	=183	=183	=183
0r	0r	1G	2g	1b	1dd
.	.	.	2g	.	.
.	.	2G	1g	2b	2dd
.	.	2c	.	2cc	[2ee
=184	=184	=184	=184	=184	=184
0r	0r	2e	2g	2b	2ee]
.	.	2f	1a	2a	1dd
.	.	1e	.	2b	.
.	.	.	[2g	2cc	2cc
=185	=185	=185	=185	=185	=185
0r	2r	1d	2g]	1dd	2b
.	2d	.	2f	.	2.a
.	2c	1r	2e	1r	.
.	.	.	.	.	8g
.	.	.	.	.	8f#
.	2B	.	[2d	.	2g#
=186	=186	=186	=186	=186	=186
1r	1A	2r	4d]	1ee	0a
.	.	.	8c	.	.
.	.	.	8B	.	.
.	.	2a	2c#	.	.
2r	2r	2f	1d	1ff	.
2d	2f	2d	.	.	.
=187	=187	=187	=187	=187	=187
2c	2g	2e	0r	2ee	0r
2A	2a	2c	.	2ee	.
2B-	2f	1d	.	2dd	.
2B-	2g	.	.	2dd	.
=188	=188	=188	=188	=188	=188
1A	1a	2r	2r	1cc	0r
.	.	2A	2a	.	.
2r	2r	2B	2g	2dd	.
2A	2A	2c	2e	[2ee	.
=189	=189	=189	=189	=189	=189
2F	2c	1A	2f	4ee]	1r
.	.	.	.	4dd	.
2D	2d	.	2f	1dd	.
1A	1e	2r	2e	.	1ee
.	.	2a	2A	2cc#	.
=190	=190	=190	=190	=190	=190
2r	1d	2f	2.a	1dd	1ff
2d	.	2d	.	.	.
.	.	.	4f	.	.
2c	2r	2e	2g	1r	2ee
2A	2a	2c	2a	.	2ee
=191	=191	=191	=191	=191	=191
2B-	2f	1d	4d	0r	2dd
.	.	.	4e	.	.
2B-	2d	.	4f	.	2dd
.	.	.	4g	.	.
2A	2e	2r	[1a	.	2cc
2A	2e	2c	.	.	[2ee
=192	=192	=192	=192	=192	=192
2F	2A	1f	1a_	0r	2ee]
2D	2.a	.	.	.	1dd
1A	.	1e	1a_	.	.
.	4g	.	.	.	.
.	2e	.	.	.	2cc#
=193	=193	=193	=193	=193	=193
1D	2f#	0d	1a]	1r	0dd
.	2f#	.	.	.	.
1G	2.g	.	1r	1b	.
.	4f	.	.	.	.
=194	=194	=194	=194	=194	=194
1A	2e	1r	1e	1cc	0r
.	2A	.	.	.	.
2D	2A	2r	1f	2.dd	.
2D	2A	2d	.	.	.
.	.	.	.	4dd	.
=195	=195	=195	=195	=195	=195
1G	2.B	2d	2.g	2dd	0r
.	.	2d	.	2dd	.
.	8A	.	4g	.	.
.	8B	.	.	.	.
1C	2c	2e	2g	2cc	.
.	2G	2e	2g	2ee	.
=196	=196	=196	=196	=196	=196
2D	2d	2A	2f	1dd	0r
2D	2d	2A	2a	.	.
1G	1d	1B	1g	1b	.
=197	=197	=197	=197	=197	=197
2C	2c	2G	2e	2cc	0r
2F	2c	2A	2f	2a	.
2G	2B	2G	2d	2b	.
2E	2G	2g	2e	2cc	.
=198	=198	=198	=198	=198	=198
2D	2A	2f	2f	2dd	0r
2C	1c	2e	2g	2ee	.
2F	.	1f	2a	2cc	.
2D	2F	.	2f	2dd	.
=199	=199	=199	=199	=199	=199
1C	4c	1e	2g	1ee	0r
.	4B	.	.	.	.
.	4A	.	1a	.	.
.	4G	.	.	.	.
[1D	2F#	2A	.	[1dd	.
.	2G	[2d	[2g	.	.
=200	=200	=200	=200	=200	=200
1D]	1A	4d]	2g]	0dd]	0r
.	.	4c	.	.	.
.	.	2A	2f#	.	.
1G	1G	1B	1g	.	.
*-	*-	*-	*-	*-	*-
!!!CDT: 1525/^1526/-1594/2/2
!!!OCY: Italia
!!!AGN: Mass (Paraphrase)
!!!AST: renaissance, vocal
!!!ASW: Gregorian Mass
!!!PWK: Masses, Book 3
!!!RNB: Cadence finals: G,D,C,E,F
!!!YOR: Le Opere Complete, v. 6, p. 175
!!!YOO: Rome, Italy: Fratelli Scalera
!!!END: 1992//
!!!EED: John Miller
!!!YEC: Copyright 2000, John Miller
!!!YEN: United States of America
!!!YEM: Rights to all derivative electronic formats reserved.
!!!YEM: Refer to licensing agreement for further details.
!!!YEM: This file must be accompanied by the licensing agreement.
!!!YEM: A copy of the licensing agreement may be found at http://www.music-cog.ohio-state.edu/HumdrumDatabases/Palestrina/license.txt
!!!EMD: converted to Humdrum by Bret Aarden
